X: 70
T: 70. Gott sei gelobet und gebenedeiet
N: Derived from chor070.krn
C: Johann Sebastian Bach
%%abc-version 2.0
%%abcx-abcm2ps-target-version 5.9.1 (29 Sep 2008)
%%abc-creator hum2abc beta
%%abcx-conversion-date 2019/03/11 17:28:18
%%abc-edited-by Craig Stuart Sapp
%%humdrum-veritas 3003716826
%%humdrum-veritas-data 1272852912
%%
%%barnumbers 0
L: 1/4
M: C
%%staves [1 2 3 4]
V: 1 clef=treble
V: 2 clef=treble
V: 3 clef=treble-8
V: 4 clef=bass
K: C
[V:1] G [I:setbarnb 1]| 
[V:2] D | 
[V:3] B/c/ | 
[V:4] G,,/A,,/ | 
[V:1] GGA2 | 
[V:2] G/F/E-ED | 
[V:3] dc/B/cB/A/ | 
[V:4] B,,E,/D,/C,F, | 
[V:1] !fermata!G2cd | 
[V:2] !fermata!E2GG- | 
[V:3] !fermata!B2ef | 
[V:4] !fermata!E,2E,/D,/C,/B,,/ | 
[V:1] cBA2 | 
[V:2] G/^F/GG/^F//E//F | 
[V:3] edd-d/c/ | 
[V:4] C,G,,D,D,, | 
[V:1] !fermata!G2A/B/c | 
[V:2] !fermata!D2=F-F/E/ | 
[V:3] !fermata!B2dc | 
[V:4] !fermata!G,,2D,A,, | 
[V:1] G/F/EFE | 
[V:2] DC-C/B,/C- | 
[V:3] dGFG | 
[V:4] B,,C,/B,,/A,,G,, | 
[V:1] D2!fermata!C :|]  
[V:2] C/B,//A,//B,!fermata!G, :|]  
[V:3] AG/F/!fermata!E :|]  
[V:4] F,,G,,!fermata!C,, :|]  
[V:1] G [I:setbarnb 7]| 
[V:2] E | 
[V:3] c | 
[V:4] C, | 
[V:1] GGA3/G/ | 
[V:2] D/C/ D/F/ E/D//C// B,/^C/ | 
[V:3] G/A/Bc/^F/ G/A/ | 
[V:4] B,,/A,,/G,,C,/D,/E, | 
[V:1] ^F/G/A!fermata!G2 ||  
[V:2] D/G^F/!fermata!D2 ||  
[V:3] BA/B//c//!fermata!B2 ||  
[V:4] D,D,,!fermata!G,,2 ||  
[V:1] GGAB | 
[V:2] DE^FG- | 
[V:3] B-B/^c/dd | 
[V:4] G,/^F,/E,D,/C,/B,, | 
[V:1] cBA2 | 
[V:2] G/^F/GG/F//E//F | 
[V:3] cde/c/ A/d//c// | 
[V:4] A,,B,,/G,,/ C,/A,,/D, | 
[V:1] !fermata!G2Bc | 
[V:2] !fermata!D2GG | 
[V:3] !fermata!B2de | 
[V:4] !fermata!G,,2G,/=F,/E, | 
[V:1] dddA | 
[V:2] GG-G/^F//E// F/=F/ | 
[V:3] d/c/Bcd/c/ | 
[V:4] B,,3/E,/A,,D, | 
[V:1] GE!fermata!D2 | 
[V:2] E/D/ D/^C/!fermata!A,2 | 
[V:3] _BA3//G//!fermata!F2 | 
[V:4] G,,A,,!fermata!D,2 | 
[V:1] E^FG/=F/E | 
[V:2] =CCDC- | 
[V:3] GAGG | 
[V:4] C,/B,,/A,,B,,C,/B,,/ | 
[V:1] ^F2!fermata!G2 | 
[V:2] C/E/ D/C/!fermata!B,2 | 
[V:3] A/c/ B/A/!fermata!G2 | 
[V:4] A,,D,!fermata!G,,2 | 
[V:1] D/E/=FED | 
[V:2] B,A,G,/C/B, | 
[V:3] GC/D/ E/G/G | 
[V:4] G,,A,,/B,,/ C,/E,/ G,/F,/ | 
[V:1] ED!fermata!C2 | 
[V:2] C3/B,/!fermata!G,2 | 
[V:3] GG3//F//!fermata!E2 | 
[V:4] E,/C,/ G,/G,,/!fermata!C,2 | 
[V:1] zGGG | 
[V:2] xDCG, | 
[V:3] xG/F/ED/E/ | 
[V:4] zB,,C,B,, | 
[V:1] A3/G/ ^F/G/A | 
[V:2] C/D/ED2 | 
[V:3] Fc/B/ A/G^F/ | 
[V:4] A,,/B,,/C,D,2 | 
[V:1] !fermata!G3 |]  
[V:2] !fermata!D3 |]  
[V:3] !fermata!B3 |]  
[V:4] !fermata!G,,3 |]  



